findly-builder/apps/searchassist/src/assets/images/icons/sdkdownload.svg

<svg width="40" height="40" viewBox="0 0 40 40" fill="none" xmlns="http://www.w3.org/2000/svg">
<path d="M36.8751 12.5H37.8126C39.1676 12.5 40.2451 11.2513 39.9514 9.84813C39.7376 8.82625 38.7851 8.125 37.7408 8.125H33.1251C32.4345 8.125 31.8751 7.56563 31.8751 6.875C31.8751 6.18437 32.4345 5.625 33.1251 5.625H35.2408C36.2845 5.625 37.2376 4.92375 37.4514 3.90188C37.7451 2.49875 36.6676 1.25 35.3126 1.25H21.2539H20.3126H5.31263C4.1095 1.25 3.12513 2.23438 3.12513 3.4375C3.12513 4.64062 4.1095 5.625 5.31263 5.625H6.25013C6.94075 5.625 7.50013 6.18437 7.50013 6.875C7.50013 7.56563 6.94075 8.125 6.25013 8.125H2.8845C1.84075 8.125 0.887628 8.82625 0.673878 9.84813C0.380128 11.2513 1.45763 12.5 2.81263 12.5H11.2501V20H2.8845C1.84075 20 0.887628 20.7013 0.673878 21.7231C0.380128 23.1262 1.45763 24.375 2.81263 24.375H3.12513C3.81575 24.375 4.37513 24.9344 4.37513 25.625C4.37513 26.3156 3.81575 26.875 3.12513 26.875H2.81263C1.45763 26.875 0.380128 28.1238 0.673878 29.5269C0.887628 30.5487 1.84075 31.25 2.8845 31.25H6.25013C6.94075 31.25 7.50013 31.8094 7.50013 32.5C7.50013 33.1906 6.94075 33.75 6.25013 33.75H5.3845C4.34075 33.75 3.38763 34.4512 3.17388 35.4731C2.88013 36.8763 3.95763 38.125 5.31263 38.125H19.3714H20.3126H34.6876C35.8908 38.125 36.8751 37.1406 36.8751 35.9375C36.8751 34.7344 35.8908 33.75 34.6876 33.75H34.3751C33.6845 33.75 33.1251 33.1906 33.1251 32.5C33.1251 31.8094 33.6845 31.25 34.3751 31.25H37.1158C38.1595 31.25 39.1126 30.5487 39.3264 29.5269C39.6201 28.1238 38.5426 26.875 37.1876 26.875H29.3751V19.375H37.1158C38.1595 19.375 39.1126 18.6737 39.3264 17.6519C39.6201 16.2487 38.5426 15 37.1876 15H36.8751C36.1845 15 35.6251 14.4406 35.6251 13.75C35.6251 13.0594 36.1845 12.5 36.8751 12.5Z" fill="url(#paint0_radial)"/>
<path d="M35 18.125C35 22.2687 31.6437 25.625 27.5 25.625C26.375 25.625 12.0875 25.625 10.9375 25.625C7.65625 25.625 5 22.9688 5 19.6875C5 16.85 6.9875 14.475 9.65625 13.8875C10.7188 9.50625 14.6625 6.25 19.375 6.25C22.8188 6.25 25.85 7.9875 27.65 10.6313C31.725 10.7063 35 14.0312 35 18.125Z" fill="url(#paint1_linear)"/>
<path d="M18.9063 11.7276V17.9756H16.394C15.7229 17.9756 15.3751 18.7386 15.833 19.2061L19.4389 22.8888C19.7474 23.2037 20.2523 23.2037 20.5611 22.8888L24.167 19.2061C24.6249 18.7386 24.2771 17.9756 23.606 17.9756H21.0937V11.7276C21.0937 11.1186 20.6041 10.625 20 10.625C19.3959 10.625 18.9063 11.1186 18.9063 11.7276Z" fill="white"/>
<defs>
<radialGradient id="paint0_radial" cx="0" cy="0" r="1" gradientUnits="userSpaceOnUse" gradientTransform="translate(20.3126 19.6875) scale(19.0725)">
<stop stop-color="#AFEEFF"/>
<stop offset="0.193" stop-color="#BBF1FF"/>
<stop offset="0.703" stop-color="#D7F8FF"/>
<stop offset="1" stop-color="#E1FAFF"/>
</radialGradient>
<linearGradient id="paint1_linear" x1="12.7969" y1="4.99625" x2="22.7531" y2="23.9569" gradientUnits="userSpaceOnUse">
<stop stop-color="#238DE8"/>
<stop stop-color="#1E7AE4"/>
<stop offset="1" stop-color="#2FB6F1"/>
</linearGradient>
</defs>
</svg>

<svg width="40" height="40" fill="none" xmlns="http://www.w3.org/2000/svg"><path d="M36.875 12.5h.938a2.193 2.193 0 0 0 2.138-2.652c-.213-1.022-1.166-1.723-2.21-1.723h-4.616a1.25 1.25 0 1 1 0-2.5h2.116c1.044 0 1.997-.701 2.21-1.723a2.193 2.193 0 0 0-2.138-2.652h-30a2.194 2.194 0 0 0-2.188 2.188c0 1.203.984 2.187 2.188 2.187h.937a1.25 1.25 0 1 1 0 2.5H2.885c-1.044 0-1.997.701-2.211 1.723A2.193 2.193 0 0 0 2.813 12.5h8.437V20H2.884c-1.043 0-1.996.701-2.21 1.723a2.193 2.193 0 0 0 2.139 2.652h.312a1.25 1.25 0 1 1 0 2.5h-.312a2.193 2.193 0 0 0-2.14 2.652c.215 1.022 1.168 1.723 2.212 1.723H6.25a1.25 1.25 0 1 1 0 2.5h-.865c-1.044 0-1.997.701-2.211 1.723a2.193 2.193 0 0 0 2.139 2.652h29.375a2.194 2.194 0 0 0 2.187-2.188 2.194 2.194 0 0 0-2.187-2.187h-.313a1.25 1.25 0 1 1 0-2.5h2.74c1.044 0 1.998-.701 2.211-1.723a2.193 2.193 0 0 0-2.138-2.652h-7.813v-7.5h7.74c1.044 0 1.998-.701 2.211-1.723A2.193 2.193 0 0 0 37.188 15h-.313a1.25 1.25 0 1 1 0-2.5Z" fill="url(#a)"/><path d="M35 18.125c0 4.144-3.356 7.5-7.5 7.5H10.937A5.935 5.935 0 0 1 5 19.687a5.938 5.938 0 0 1 4.656-5.8c1.063-4.38 5.006-7.637 9.719-7.637a9.99 9.99 0 0 1 8.275 4.381A7.49 7.49 0 0 1 35 18.125Z" fill="url(#b)"/><path d="M18.906 11.728v6.248h-2.512c-.671 0-1.019.763-.561 1.23l3.606 3.683a.785.785 0 0 0 1.122 0l3.606-3.683c.458-.467.11-1.23-.561-1.23h-2.512v-6.248c0-.61-.49-1.103-1.094-1.103-.604 0-1.094.494-1.094 1.103Z" fill="#fff"/><defs><radialGradient id="a" cx="0" cy="0" r="1" gradientUnits="userSpaceOnUse" gradientTransform="translate(20.313 19.688) scale(19.0725)"><stop stop-color="#AFEEFF"/><stop offset=".193" stop-color="#BBF1FF"/><stop offset=".703" stop-color="#D7F8FF"/><stop offset="1" stop-color="#E1FAFF"/></radialGradient><linearGradient id="b" x1="12.797" y1="4.996" x2="22.753" y2="23.957" gradientUnits="userSpaceOnUse"><stop stop-color="#238DE8"/><stop stop-color="#1E7AE4"/><stop offset="1" stop-color="#2FB6F1"/></linearGradient></defs></svg>
